**kern	**kern
*staff2	*staff1
*clefF4	*clefG2
*k[b-]	*k[b-]
*M3/4	*M3/4
=-	=-
4r	4cc
=93	=93
2.r	(8bL
.	8ccJ
.	8ddL)
.	8cc'J
.	8b-'L)
.	8a'J
=94	=94
2r	8g'L)
.	8f'J
.	8e'L)
.	8d'J
4B-	(8cL
.	8eJ)
=95	=95
(4A 4c	4f
4G 4B-	(8fL)
.	8eJ)
4F) 4A	(8fL
.	8aJ)
=96	=96
2C 2c	(4f 4a
.	4e) 4g
4r	4cc
=97	=97
2.r	(8bL
.	8ccJ
.	12eeL
.	12dd)
.	12cc'J
.	(12ccL
.	12b-)
.	12a'J
=98	=98
4r	(12aL
.	12g)
.	12f'J
4r	(12fL
.	12e)
.	12d'J
4BB-	(8cL
.	8eJ)
=99	=99
*	*^
4AA	4f	2r
4C	(8fL	.
.	8aJ)	.
4CC	(8gL	4B-
.	8eJ)	.
=100	=100	=100
4FF	4f	4A
4F	4r	4r
*	*v	*v
*-	*-
